X: 13464
T: Flora Macdonald
R: reel
M: 4/4
K: Eminor
|:E2EF BFDF|E2EF dFDF|E2EF G2GA|BGAG FDDF:|
|:Beed eEEF|Eee^c dBAF|Eee^c d2de|1 fde^c dBAF:|2 fde^c dBAg||
|:f2ef beef|g2gb agfd|e2ed efga|1 bgag fddf:|2 bgag fedc||
|:BEBA BEEe|BEB^c dBAe|1 BEBA B^cde|
fde^c dBAF:|2 B/B/B B^cd2 de|^c/d/e cA dBAF||

